X:227
T:Liverpool Hornpipe. JaW.227
M:C|
L:1/8
Q:1/2=90
S:James Winder Ms, Lancashire, 1835-41
R:.Hornpipe
O:England
A:Wyresdale,Lancashire
Z:vmp.Chris Partington, Aug 2004
K:D
FEFA dfaf|gefd dcBA|GBGB FAFA|EFGA GFED|!
FEFA efaf|gefd dcBA|fafd egec|d2d2″ cr”d4:|!
|:dffd ceec|BddB BAGF|GBGB FAFA|EFGA GFED|!
FEFA dfaf|gefd dcBA|fafd egec|d2d2” cr”d4:|

